X: 17258
T: Herbie Smith's Four-Hand
R: barndance
M: 4/4
K: Gmajor
|:d|g2 f2 e2 d2|c2 B2 A2 G2|GABc d2 B2|B/c/B A^G A3 d|
g2 f/g/f e2 d/e/d|c2 B/c/B A3 G|[M:5/4] GABc d2 b2 ag|[M:4/4] a2 g2 g3:|
|:A|B2 BB B2 B2|cBAG B4|B2 BB B2 B2|AGFE D3 A|
B2 BB B/c/B BG|cB A2 B4|B2 cB A2 BA|G2 G2 G3:|

